brandFactory_export/3.Masa/Chip_Sim card_3Masa.svg

<?xml version="1.0" encoding="UTF-8"?>
<svg width="24px" height="24px" viewBox="0 0 24 24" version="1.1" xmlns="http://www.w3.org/2000/svg" xmlns:xlink="http://www.w3.org/1999/xlink">
    <title>3.Masa/Chip_Sim card_3Masa</title>
    <g id="Symbols" stroke="none" stroke-width="1" fill="none" fill-rule="evenodd">
        <g id="3.Masa/Chip_Sim-card_3Masa" fill="#5CB615" fill-rule="nonzero">
            <path d="M19.7579832,0.746218487 C19.1731092,0.127731092 18.3596639,0 17.7815126,0 L9.27058824,0 C9.10252101,0 8.93781513,0.0638655462 8.81344538,0.178151261 L4.22521008,4.4302521 C4.08739496,4.55798319 4.01008403,4.73613445 4.01008403,4.92436975 L4.01008403,20.9714286 C4.01008403,21.7512605 4.23865546,22.4033613 4.67226891,22.8638655 C5.25378151,23.4823529 6.06722689,23.610084 6.6487395,23.610084 L17.7815126,23.610084 C18.8302521,23.610084 19.4352941,23.2033613 19.7579832,22.8638655 C20.1915966,22.4033613 20.4201681,21.7512605 20.4201681,20.9714286 L20.4201681,2.63865546 C20.4201681,1.85882353 20.1915966,1.20672269 19.7579832,0.746218487 Z M11.2403361,10.6756303 C11.2403361,10.4907563 11.3915966,10.3394958 11.5764706,10.3394958 L12.8369748,10.3394958 C13.0218487,10.3394958 13.1731092,10.4907563 13.1731092,10.6756303 L13.1731092,11.9361345 C13.1731092,12.1210084 13.0218487,12.2722689 12.8369748,12.2722689 L11.5764706,12.2722689 C11.3915966,12.2722689 11.2403361,12.1210084 11.2403361,11.9361345 L11.2403361,10.6756303 Z M7.9697479,10.6756303 C7.9697479,10.4907563 8.1210084,10.3394958 8.30588235,10.3394958 L9.55966387,10.3394958 C9.74453782,10.3394958 9.89579832,10.4907563 9.89579832,10.6756303 L9.89579832,11.9361345 C9.89579832,12.1210084 9.74453782,12.2722689 9.55966387,12.2722689 L8.30588235,12.2722689 C8.1210084,12.2722689 7.9697479,12.1210084 7.9697479,11.9361345 L7.9697479,10.6756303 Z M9.89579832,18.9915966 C9.89579832,19.1764706 9.74453782,19.3277311 9.55966387,19.3277311 L8.30588235,19.3277311 C8.1210084,19.3277311 7.9697479,19.1764706 7.9697479,18.9915966 L7.9697479,17.7310924 C7.9697479,17.5462185 8.1210084,17.394958 8.30588235,17.394958 L9.55966387,17.394958 C9.74453782,17.394958 9.89579832,17.5462185 9.89579832,17.7310924 L9.89579832,18.9915966 Z M13.1731092,18.9915966 C13.1731092,19.1764706 13.0218487,19.3277311 12.8369748,19.3277311 L11.5764706,19.3277311 C11.3915966,19.3277311 11.2403361,19.1764706 11.2403361,18.9915966 L11.2403361,17.7310924 C11.2403361,17.5462185 11.3915966,17.394958 11.5764706,17.394958 L12.8369748,17.394958 C13.0218487,17.394958 13.1731092,17.5462185 13.1731092,17.7310924 L13.1731092,18.9915966 Z M16.4571429,18.9915966 C16.4571429,19.1764706 16.3058824,19.3277311 16.1210084,19.3277311 L14.8504202,19.3277311 C14.6655462,19.3277311 14.5142857,19.1764706 14.5142857,18.9915966 L14.5142857,17.7310924 C14.5142857,17.5462185 14.6655462,17.394958 14.8504202,17.394958 L16.1210084,17.394958 C16.3058824,17.394958 16.4571429,17.5462185 16.4571429,17.7310924 L16.4571429,18.9915966 Z M16.4571429,15.7142857 C16.4571429,15.8991597 16.3058824,16.0504202 16.1210084,16.0504202 L8.30588235,16.0504202 C8.1210084,16.0504202 7.9697479,15.8991597 7.9697479,15.7142857 L7.9697479,13.9529412 C7.9697479,13.7680672 8.1210084,13.6168067 8.30588235,13.6168067 L16.1210084,13.6168067 C16.3058824,13.6168067 16.4571429,13.7680672 16.4571429,13.9529412 L16.4571429,15.7142857 L16.4571429,15.7142857 Z M16.4571429,11.9361345 C16.4571429,12.1210084 16.3058824,12.2722689 16.1210084,12.2722689 L14.8504202,12.2722689 C14.6655462,12.2722689 14.5142857,12.1210084 14.5142857,11.9361345 L14.5142857,10.6756303 C14.5142857,10.4907563 14.6655462,10.3394958 14.8504202,10.3394958 L16.1210084,10.3394958 C16.3058824,10.3394958 16.4571429,10.4907563 16.4571429,10.6756303 L16.4571429,11.9361345 Z" id="Chip_Sim-card_3Masa"></path>
        </g>
    </g>
</svg>

<svg width="24" height="24" viewBox="0 0 24 24" xmlns="http://www.w3.org/2000/svg"><path d="M19.758.746C19.173.128 18.36 0 17.782 0H9.27a.679.679 0 00-.458.178L4.225 4.43a.671.671 0 00-.215.494v16.047c0 .78.229 1.432.662 1.893.582.618 1.395.746 1.977.746h11.133c1.048 0 1.653-.407 1.976-.746.434-.46.662-1.113.662-1.893V2.64c0-.78-.228-1.432-.662-1.893zm-8.518 9.93c0-.185.152-.337.336-.337h1.261c.185 0 .336.152.336.337v1.26a.337.337 0 01-.336.336h-1.26a.337.337 0 01-.337-.336v-1.26zm-3.27 0c0-.185.151-.337.336-.337H9.56c.185 0 .336.152.336.337v1.26a.337.337 0 01-.336.336H8.306a.337.337 0 01-.336-.336v-1.26zm1.926 8.316a.337.337 0 01-.336.336H8.306a.337.337 0 01-.336-.336v-1.26c0-.186.151-.337.336-.337H9.56c.185 0 .336.151.336.336v1.26zm3.277 0a.337.337 0 01-.336.336h-1.26a.337.337 0 01-.337-.336v-1.26c0-.186.152-.337.336-.337h1.261c.185 0 .336.151.336.336v1.26zm3.284 0a.337.337 0 01-.336.336h-1.27a.337.337 0 01-.337-.336v-1.26c0-.186.152-.337.336-.337h1.271c.185 0 .336.151.336.336v1.26zm0-3.278a.337.337 0 01-.336.336H8.306a.337.337 0 01-.336-.336v-1.761c0-.185.151-.336.336-.336h7.815c.185 0 .336.151.336.336v1.761zm0-3.778a.337.337 0 01-.336.336h-1.27a.337.337 0 01-.337-.336v-1.26c0-.185.152-.337.336-.337h1.271c.185 0 .336.152.336.337v1.26z" fill="#5CB615" fill-rule="nonzero"/></svg>
